usr/share/icons/biglinux-icons-material/scalable/apps/dia.svg

<svg width="24" height="24" viewBox="0 0 24 24" fill="none" xmlns="http://www.w3.org/2000/svg">
<path fill-rule="evenodd" clip-rule="evenodd" d="M9.59604 1.11359C9.71588 1.11486 9.83043 1.0996 9.93969 1.06779C11.3755 0.973736 12.8111 0.977551 14.2467 1.07924C15.5484 1.18066 16.8085 1.46308 18.0269 1.9265C20.0525 2.76044 21.4386 4.20689 22.185 6.26585C22.6119 7.50549 22.8639 8.78021 22.9411 10.09C23.0478 11.7347 23.0096 13.3758 22.8265 15.0133C22.6895 16.1642 22.3916 17.271 21.933 18.3336C21.0824 20.1761 19.704 21.447 17.7978 22.1463C16.2531 22.6682 14.6647 22.943 13.0325 22.9706C11.1966 23.0661 9.37913 22.9287 7.57997 22.5585C4.26839 21.8208 2.22559 19.8018 1.45158 16.5017C1.12311 15.0161 0.974199 13.5124 1.00483 11.9906C0.968176 10.3724 1.14 8.77709 1.52031 7.20471C2.33171 4.11908 4.2905 2.20701 7.39669 1.46852C8.12048 1.29157 8.8536 1.17326 9.59604 1.11359Z" fill="url(#paint0_radial_4_139)"/>
<path opacity="0.1" d="M7.25069 4.28579H8.53593V5.56885H7.25069" fill="black"/>
<path d="M12.0719 8.78607L8.85738 14.5716H15.2863M13.229 13.2858H10.9142L12.0713 11.1003" fill="#FF9409"/>
<path d="M5.64344 3V4.92869H6.28634V5.57159H5V7.50027H6.28579V16.4997H5V18.4284H6.28579V18.9925H5.6429L6.92814 21L8.21393 18.9925H7.57104V18.4284H13.3566C16.9182 18.4284 19.7855 15.5611 19.7855 12C19.7855 8.43888 16.9182 5.57159 13.3566 5.57159H7.57158V4.92869H8.21448V3H5.64344ZM7.57158 7.50027H13.3571C15.8504 7.50027 17.8574 9.50727 17.8574 12C17.8574 14.4927 15.8504 16.4997 13.3571 16.4997H7.57158V7.50027Z" fill="#F9F9F9"/>
<defs>
<radialGradient id="paint0_radial_4_139" cx="0" cy="0" r="1" gradientUnits="userSpaceOnUse" gradientTransform="translate(12 1) rotate(90) scale(22)">
<stop stop-color="#5E5E5E"/>
<stop offset="1" stop-color="#3D3D3D"/>
</radialGradient>
</defs>
</svg>

<svg xmlns="http://www.w3.org/2000/svg" width="24" height="24" fill="none"><path fill="url(#a)" fill-rule="evenodd" d="M9.596 1.114c.12 0 .234-.014.344-.046a31.627 31.627 0 0 1 4.307.011c1.301.102 2.561.384 3.78.848 2.025.833 3.412 2.28 4.158 4.339.427 1.24.679 2.514.756 3.824a27.94 27.94 0 0 1-.114 4.923 11.88 11.88 0 0 1-.894 3.32c-.85 1.843-2.229 3.114-4.135 3.813a15.624 15.624 0 0 1-4.765.825 21.423 21.423 0 0 1-5.453-.413c-3.312-.737-5.354-2.756-6.128-6.056a19.047 19.047 0 0 1-.447-4.511 18.491 18.491 0 0 1 .515-4.786c.812-3.086 2.77-4.998 5.877-5.736a13.953 13.953 0 0 1 2.199-.355Z" clip-rule="evenodd"/><path fill="#000" d="M7.25 4.286h1.286v1.283H7.25" opacity=".1"/><path fill="#FF9409" d="m12.072 8.786-3.215 5.786h6.43m-2.058-1.286h-2.315l1.157-2.186"/><path fill="#F9F9F9" d="M5.643 3v1.929h.643v.643H5V7.5h1.286v9H5v1.928h1.286v.564h-.643L6.928 21l1.286-2.008H7.57v-.564h5.786A6.415 6.415 0 0 0 19.785 12a6.415 6.415 0 0 0-6.428-6.428H7.572v-.643h.642V3h-2.57Zm1.929 4.5h5.785a4.49 4.49 0 0 1 4.5 4.5 4.49 4.49 0 0 1-4.5 4.5H7.572v-9Z"/><defs><radialGradient id="a" cx="0" cy="0" r="1" gradientTransform="matrix(0 22 -22 0 12 1)" gradientUnits="userSpaceOnUse"><stop stop-color="#5E5E5E"/><stop offset="1" stop-color="#3D3D3D"/></radialGradient></defs></svg>
